svgs/sharp-regular/subtitles-slash.svg

<svg xmlns="http://www.w3.org/2000/svg" viewBox="0 0 640 512"><!--! Font Awesome Pro 6.6.0 by @fontawesome - https://fontawesome.com License - https://fontawesome.com/license (Commercial License) Copyright 2024 Fonticons, Inc. --><path d="M48.4 14.8L29.4 .1 0 38 19 52.7 591.5 497.2l19 14.7L639.9 474l-19-14.7-12.9-10 0-17.3 0-352 0-48-48 0L80 32l-9.5 0L48.4 14.8zm84 65.2L560 80l0 332-48-37.3 0-38.7-24 0-25.9 0-61.8-48 7.7 0 80 0 24 0 0-48-24 0-80 0-24 0 0 35.4L132.4 80zM32 432l0 48 48 0 407.4 0-60.9-48L80 432l0-273L32 121.2 32 432zM152 240l-24 0 0 48 24 0 91.7 0-60.9-48L152 240zm136 96l0 48 24 0 53.5 0-60.9-48L288 336zm-160 0l0 48 24 0 80 0 24 0 0-48-24 0-80 0-24 0z"/></svg>

<svg xmlns="http://www.w3.org/2000/svg" viewBox="0 0 640 512"><!--! Font Awesome Pro 6.4.2 by @fontawesome - https://fontawesome.com License - https://fontawesome.com/license (Commercial License) Copyright 2023 Fonticons, Inc. --><path d="M48.4 14.8L29.4 .1 0 38 19 52.7 591.5 497.2l19 14.7L639.9 474l-19-14.7-12.9-10V432 80 32H560 80 70.5L48.4 14.8zm84 65.2H560V412l-48-37.3V336H488 462.1l-61.8-48H408h80 24V240H488 408 384v35.4L132.4 80zM32 432v48H80 487.4l-60.9-48H80V159L32 121.2V432zM152 240H128v48h24 91.7l-60.9-48H152zm136 96v48h24 53.5l-60.9-48H288zm-160 0v48h24 80 24V336H232 152 128z"/></svg>
